X:8
T:Sally in the Garden, Assisting Sam
M:2/4
L:1/16
Z:jason
B: From Uncle William Raines
K:A
cB | A2B2 =c2d2 | e2a2 e2ed | =c2A2 ABcA | BGEG BGEG |
A2B2 =c2d2 | e2a2 e2d2 | =c2A2 ABA=G | E2A2 A2 z2 :|
|: ABA=G E2AB | =c2B2 c2B2 | ABA=G E2=GA | B2BA BA=G2 |
ABA=G E2AB | =c2cB c2d2 | e2A2 ABA=G | E2A2 A2z2 :|

